X:1
T:Christmas Song
T:Christmas Song
T:Edvard Grieg 
T:arr. Eric Kuhlstrom
T:IMSLP275045-PMLP446678-Christmas_Album - Public Domain
T:IMSLP275045-PMLP446678-Christmas_Album - Public Domain
C:Edvard Grieg
Z:arr. Eric Kuhlstrom
Z:IMSLP275045-PMLP446678-Christmas_Album - Public Domain
%%score { ( 1 2 ) | ( 3 4 ) }
L:1/8
Q:1/4=50
M:6/8
K:Eb
V:1 treble nm="Piano" snm="Pno."
V:2 treble 
V:3 bass 
V:4 bass 
V:1
"^Andantino semplice" g2 e g>f!3!e | !4!e3- e2 B | !1!G2 !2!E!<(! !4!G>FE!<)! | %3
w: |* * Good|day and wel\- come, dear|
!mf! !1!F2 !5!c!>(! B2 !3!B!>)! |!mp! !1!G2 !2!E!<(! !4!G>FE!<)! |!mf! !1!F2 c!>(! cBA!>)! | %6
w: Christ\- mas\- tree! To|young and old bring\- ing|peace and plea\- sure 'mid|
 G2 B!<(! e!5!d!2!B!<)! |!mf!!>(! !5!c2 !4!=A!>)!!mp! F2 B | %8
w: glow and glim\- mer and|chil\- dren's glee 'bove|
!mf!!>(! c2 !5!d!>)! (c!<(!!3!B)!2!B!<)! |!mf! (!3!cf)!>(!!5!d c !fermata!B!>)!!pp! B | e2 d c>BA | %11
w: fruits and flags shines a|bright * star gol\- den That|stars ball guide us, what|
 !5!d2 c B>AG | !5!c6- | c3 d3 | e3- e2 z :| g2 e g>f!3!e | !4!e6 |] %17
w: o'er be\- tide us, tow'rd|God|_ on|hight! *|||
V:2
 G3 A3 | G3- G2 x | x6 | x6 | x6 | x6 | x EG z EG | z EF x!<(! DF!<)! | z EF z DF | E2 F ED F | %10
 x6 | x6 | G3 [CGB]3 | [CFA]3 [DFAB]3 | [EGB]3- [EGB]2 z :| G3 A3 | G6 |] %17
V:3
 !2!B,3 C3 | B,3- B,2 z | E,G,B, E,G,=B, | E,A,C F,A,D | E,G,B, E,G,=B, | E,A,C F,A,D | B,3 B,3 | %7
 =A,3 B,3 | !2!G,2 =A, F,3 |"^ritard." G,2 =A, !fermata!F,2"^a tempo" [_A,B,D] | %10
"^molto tranquillo" [G,B,E]3 E>DC | [F,A,D]3 D>CB, | [E,C]3 [=E,,=E,]3 | [F,,F,]3 [C,,B,,]3 | %14
 [E,,E,]3- [E,,E,]2 z :| !2!B,3 C3 | B,6 |] %17
V:4
 E,6 | E,3- E,2 z | E,3 E,3 | E,6 | E,3 E,3 | E,6 | E,3 C,3 | F,3 B,,3- | B,,3 B,,3- | %9
 B,,3 B,,2 x | x3 A,3 | x3 G,3 | x6 | x6 | x6 :| E,6 | E,6 |] %17

